images/icons/social/rss.svg

<svg height="18" viewBox="0 0 18 18" width="18" xmlns="http://www.w3.org/2000/svg"><path d="m5.3956875 16.2001875c-1.321875 0-2.3956875 1.0783125-2.3956875 2.39175 0 1.3213125 1.0738125 2.38725 2.3956875 2.38725 1.326375 0 2.3990625-1.0659375 2.3990625-2.38725 0-1.314-1.0726875-2.39175-2.3990625-2.39175zm-2.392875-7.084125v3.4498125c2.2460625 0 4.3588125.878625 5.9495625 2.4699375 1.5890625 1.587375 2.466 3.7096875 2.466 5.9641875h3.465c0-6.5536875-5.331375-11.8839375-11.8805625-11.8839375zm.0039375-6.1160625v3.4515c8.0116875 0 14.53275 6.52725 14.53275 14.5485h3.4605c0-9.9225-8.073-18-17.99325-18z" fill="#fff" fill-rule="evenodd" transform="translate(-3 -3)"/></svg>

<?xml version="1.0" encoding="UTF-8"?>
<svg width="18" height="18" viewBox="0 0 18 18" version="1.1" xmlns="http://www.w3.org/2000/svg" xmlns:xlink="http://www.w3.org/1999/xlink">
<defs></defs>
<g id="Symbols" stroke="none" stroke-width="1" fill="none" fill-rule="evenodd">
    <g id="Serg/Sidebar" transform="translate(-27.000000, -951.000000)" fill="#FFFFFF">
        <g id="Group-26" transform="translate(24.000000, 948.000000)">
            <g id="Group-25">
                <path d="M5.3956875,16.2001875 C4.0738125,16.2001875 3,17.2785 3,18.5919375 C3,19.91325 4.0738125,20.9791875 5.3956875,20.9791875 C6.7220625,20.9791875 7.79475,19.91325 7.79475,18.5919375 C7.79475,17.2779375 6.7220625,16.2001875 5.3956875,16.2001875 L5.3956875,16.2001875 Z M3.0028125,9.1160625 L3.0028125,12.565875 C5.248875,12.565875 7.361625,13.4445 8.952375,15.0358125 C10.5414375,16.6231875 11.418375,18.7455 11.418375,21 L14.883375,21 C14.883375,14.4463125 9.552,9.1160625 3.0028125,9.1160625 L3.0028125,9.1160625 Z M3.00675,3 L3.00675,6.4515 C11.0184375,6.4515 17.5395,12.97875 17.5395,21 L21,21 C21,11.0775 12.927,3 3.00675,3 L3.00675,3 Z" id="Shape"></path>
            </g>
        </g>
    </g>
</g>
</svg>
